X: 11781
T: PRINCE OF WALES' WALTZ
C: E. Lord, Jun.
P: Copyright.
%R: waltz
B: W. Hamilton "Universal Tune-Book" Vol. 1 Glasgow 1844 p.178 #1
S: http://imslp.org/wiki/Hamilton's_Universal_Tune-Book_(Various)
Z: 2016 John Chambers <jc:trillian.mit.edu>
M: 3/4
L: 1/8
K: G
%%stretchstaff 0
% - - - - - - - - - - - - - - - - - - - - - - - - -
|:\
(d2B2)c2 | d4d2 | (d2g2)f2 | {f2}e6 |\
(e2A2)B2 | c4e2 | (e2d2)G2 | (F2e2)d2 |\
(d2B2)c2 | d4d2 | (d2b2)a2 | a4g2 |\
(gfedcB) | AB c^c d^d | (e2d2)F2 | G6 :|
|:\
(A2F2)G2 | A6 | A2d2^c2 | B6 |\
B2^G2B2 | e4^d2 | (e2g2)f2 | e6 |\
(d2B2)c2 | d4d2 | (d2b2)a2 | a4g2 |\
(gfedcB) | AB c^c d^d | (e2d2)F2 | G6 :|
% - - - - - - - - - - - - - - - - - - - - - - - - -

%%sep 1 1 500
%%sep 1 1 500

